;FLAVOR:Marlin
;TIME:8086
;Filament used: 5.82723m
;Layer height: 0.2
;MINX:67.182
;MINY:0.619
;MINZ:0.2
;MAXX:158.002
;MAXY:148.934
;MAXZ:13.4
;TARGET_MACHINE.NAME:Creality Ender-3 S1 Pro
;Generated with Cura_SteamEngine 5.10.2
; Ender 3 S1 Pro Start G-code
; M413 S0 ; Disable power loss recovery
G92 E0 ; Reset Extruder

; Prep surfaces before auto home for better accuracy
M140 S60
M104 S202.0

G28 ; Home all axes
G1 Z10.0 F3000 ; Move Z Axis up little to prevent scratching of Heat Bed
G1 X0 Y0

M190 S60
M109 S202.0

G1 X0.1 Y20 Z0.3 F5000.0 ; Move to start position
G1 X0.1 Y200.0 Z0.3 F1500.0 E15 ; Draw the first line
G1 X0.4 Y200.0 Z0.3 F5000.0 ; Move to side a little
G1 X0.4 Y20 Z0.3 F1500.0 E30 ; Draw the second line
G92 E0 ; Reset Extruder
G1 Z2.0 F3000 ; Move Z Axis up little to prevent scratching of Heat Bed
G1 X5 Y20 Z0.3 F5000.0 ; Move over to prevent blob squish

M82 ;absolute extrusion mode
G92 E0
G92 E0
G1 F2400 E-0.8
;LAYER_COUNT:67
;LAYER:0
M107
M204 S2000
G0 F7500 X71.908 Y17.35 Z0.2
M204 S500
;TYPE:SKIRT
G1 F2400 E0
G1 F1500 X72.059 Y16.733 E0.02113
G1 X72.236 Y16.103 E0.04289
G1 X72.629 Y14.89 E0.0853
G1 X72.888 Y14.216 E0.10932
G1 X73.175 Y13.537 E0.13384
G1 X73.43 Y12.968 E0.15457
G1 X73.718 Y12.386 E0.17617
G1 X74.063 Y11.744 E0.20041
G1 X74.378 Y11.188 E0.22167
G1 X74.709 Y10.651 E0.24265
G1 X75.273 Y9.804 E0.27649
G1 X75.469 Y9.529 E0.28773
G1 X75.849 Y9.026 E0.30869
G1 X76.302 Y8.461 E0.33278
G1 X76.7 Y7.987 E0.35336
G1 X77.132 Y7.51 E0.37477
G1 X77.645 Y6.98 E0.3993
G1 X78.048 Y6.581 E0.41816
G1 X78.539 Y6.132 E0.44029
G1 X79.152 Y5.605 E0.46718
G1 X79.603 Y5.235 E0.48658
G1 X80.1 Y4.859 E0.50731
G1 X80.656 Y4.464 E0.53
G1 X81.212 Y4.087 E0.55234
G1 X81.743 Y3.758 E0.57311
G1 X82.396 Y3.38 E0.59821
G1 X82.919 Y3.091 E0.61808
G1 X83.491 Y2.806 E0.63934
G1 X84.198 Y2.478 E0.66526
G1 X84.723 Y2.25 E0.6843
G1 X85.325 Y2.016 E0.70578
G1 X86.49 Y1.613 E0.74678
G1 X87.152 Y1.422 E0.7697
G1 X88.382 Y1.115 E0.81186
G1 X88.829 Y1.02 E0.82706
G1 X89.414 Y0.918 E0.84681
G1 X90.506 Y0.768 E0.88347
G1 X91.145 Y0.708 E0.90482
G1 X92.227 Y0.643 E0.94087
G1 X93.05 Y0.619 E0.96826
G1 X127.08 Y0.619 E2.1001
G1 X128.098 Y0.633 E2.13396
G1 X129.103 Y0.681 E2.16743
G1 X129.784 Y0.743 E2.19017
G1 X130.579 Y0.838 E2.2168
G1 X131.275 Y0.941 E2.2402
G1 X131.85 Y1.046 E2.25964
G1 X132.65 Y1.224 E2.2869
G1 X133.061 Y1.327 E2.30099
G1 X133.675 Y1.501 E2.32222
G1 X134.558 Y1.779 E2.35301
G1 X135.038 Y1.944 E2.36989
G1 X135.628 Y2.171 E2.39092
G1 X136.794 Y2.676 E2.43318
G1 X137.401 Y2.976 E2.4557
G1 X138.114 Y3.358 E2.4826
G1 X138.625 Y3.647 E2.50213
G1 X139.158 Y3.976 E2.52296
G1 X139.768 Y4.377 E2.54724
G1 X140.298 Y4.745 E2.5687
G1 X140.809 Y5.131 E2.59
G1 X141.446 Y5.642 E2.61716
G1 X141.831 Y5.965 E2.63388
G1 X142.267 Y6.355 E2.65334
G1 X142.698 Y6.766 E2.67314
G1 X143.293 Y7.374 E2.70144
G1 X143.715 Y7.836 E2.72225
G1 X144.387 Y8.624 E2.75669
G1 X144.963 Y9.371 E2.78807
G1 X145.386 Y9.967 E2.81238
G1 X145.738 Y10.487 E2.83326
G1 X146.063 Y11.011 E2.85377
G1 X146.737 Y12.171 E2.89839
G1 X148.068 Y14.39 E2.98445
G1 X149.407 Y16.487 E3.06721
G1 X150.841 Y18.596 E3.15203
G1 X152.308 Y20.63 E3.23544
G1 X153.849 Y22.643 E3.31976
G1 X155.439 Y24.646 E3.40482
G1 X155.987 Y25.494 E3.4384
G1 X156.441 Y26.356 E3.4708
G1 X156.791 Y27.189 E3.50086
G1 X156.871 Y27.439 E3.50959
G1 X156.918 Y27.548 E3.51353
G1 X157.064 Y27.994 E3.52914
G1 X157.424 Y29.221 E3.57167
G1 X157.683 Y30.182 E3.60478
G1 X157.863 Y31.067 E3.63482
G1 X157.981 Y32.107 E3.66963
G1 X158.002 Y33.063 E3.70143
G1 X157.977 Y33.592 E3.71905
G1 X157.917 Y34.447 E3.74755
G1 X157.773 Y37.003 E3.8327
G1 X157.703 Y39.528 E3.91672
G1 X157.704 Y42.062 E4.001
G1 X157.739 Y44.002 E4.06553
G1 X157.699 Y44.904 E4.09556
G1 X157.561 Y45.929 E4.12996
G1 X157.419 Y46.603 E4.15287
G1 X157.303 Y47.057 E4.16846
G1 X157.012 Y48.107 E4.2047
G1 X156.811 Y48.79 E4.22838
G1 X156.776 Y48.872 E4.23134
G1 X156.653 Y49.284 E4.24564
G1 X156.387 Y49.977 E4.27033
G1 X155.714 Y51.556 E4.32742
G1 X154.776 Y53.872 E4.41053
G1 X153.898 Y56.228 E4.49415
G1 X153.083 Y58.623 E4.5783
G1 X152.342 Y61.012 E4.66149
G1 X151.667 Y63.436 E4.74518
G1 X151.065 Y65.858 E4.82819
G1 X150.517 Y68.362 E4.91344
G1 X150.052 Y70.816 E4.99651
G1 X149.655 Y73.304 E5.08031
G1 X149.33 Y75.783 E5.16347
G1 X149.067 Y78.335 E5.2488
G1 X148.884 Y80.818 E5.33161
G1 X148.77 Y83.336 E5.41544
G1 X148.726 Y85.852 E5.49914
G1 X148.753 Y88.297 E5.58046
G1 X148.9 Y91.626 E5.6913
G1 X148.929 Y92.541 E5.72174
G1 X148.936 Y93.075 E5.73951
G1 X148.934 Y126.807 E6.86144
G1 X148.911 Y128.09 E6.90412
G1 X148.868 Y128.866 E6.92997
G1 X148.811 Y129.5 E6.95114
G1 X148.711 Y130.333 E6.97904
G1 X148.618 Y130.968 E7.00039
G1 X148.544 Y131.379 E7.01428
G1 X148.331 Y132.365 E7.04783
G1 X148.189 Y132.932 E7.06727
G1 X148.029 Y133.503 E7.08699
G1 X147.788 Y134.253 E7.11319
G1 X147.618 Y134.735 E7.13019
G1 X147.392 Y135.325 E7.15121
G1 X147.108 Y135.999 E7.17553
G1 X146.833 Y136.607 E7.19773
G1 X146.563 Y137.151 E7.21793
G1 X146.212 Y137.809 E7.24273
G1 X145.915 Y138.335 E7.26282
G1 X145.582 Y138.874 E7.2839
G1 X145.174 Y139.494 E7.30858
G1 X144.81 Y140.02 E7.32986
G1 X144.436 Y140.515 E7.35049
G1 X143.97 Y141.098 E7.37531
G1 X143.539 Y141.608 E7.39752
G1 X143.133 Y142.054 E7.41758
G1 X142.654 Y142.548 E7.44047
G1 X142.185 Y143.012 E7.46241
G1 X141.72 Y143.438 E7.48339
G1 X141.231 Y143.859 E7.50485
G1 X140.699 Y144.296 E7.52775
G1 X140.182 Y144.687 E7.54931
G1 X139.563 Y145.126 E7.57455
G1 X139.052 Y145.472 E7.59507
G1 X138.516 Y145.805 E7.61606
G1 X137.916 Y146.153 E7.63913
G1 X137.343 Y146.467 E7.66086
G1 X136.778 Y146.749 E7.68186
G1 X136.099 Y147.064 E7.70676
G1 X135.53 Y147.311 E7.72739
G1 X134.945 Y147.538 E7.74826
G1 X134.254 Y147.784 E7.77266
G1 X133.724 Y147.958 E7.79121
G1 X133.081 Y148.144 E7.81347
G1 X132.265 Y148.351 E7.84147
G1 X131.689 Y148.483 E7.86113
G1 X131.066 Y148.601 E7.88222
G1 X130.262 Y148.725 E7.90928
G1 X129.805 Y148.782 E7.92459
G1 X129.145 Y148.844 E7.94664
G1 X128.027 Y148.911 E7.98389
G1 X127.233 Y148.934 E8.01031
G1 X93.194 Y148.934 E9.14245
G1 X92.183 Y148.92 E9.17608
G1 X91.182 Y148.873 E9.20941
G1 X90.499 Y148.811 E9.23222
G1 X89.69 Y148.714 E9.25932
G1 X88.999 Y148.611 E9.28256
G1 X88.419 Y148.505 E9.30217
G1 X87.637 Y148.331 E9.32882
G1 X87.196 Y148.221 E9.34393
G1 X86.57 Y148.042 E9.36559
G1 X85.771 Y147.791 E9.39344
G1 X85.264 Y147.618 E9.41126
G1 X84.667 Y147.388 E9.43254
G1 X84.001 Y147.107 E9.45658
G1 X83.418 Y146.845 E9.47784
G1 X82.849 Y146.563 E9.49896
G1 X82.191 Y146.212 E9.52377
G1 X81.653 Y145.908 E9.54432
G1 X81.119 Y145.578 E9.5652
G1 X80.491 Y145.164 E9.59022
G1 X79.979 Y144.807 E9.61098
G1 X79.478 Y144.429 E9.63185
G1 X78.901 Y143.968 E9.65642
G1 X78.365 Y143.515 E9.67976
G1 X77.93 Y143.117 E9.69937
G1 X77.223 Y142.427 E9.73223
G1 X76.996 Y142.193 E9.74307
G1 X76.57 Y141.727 E9.76407
G1 X76.118 Y141.203 E9.78708
G1 X75.69 Y140.68 E9.80956
G1 X75.307 Y140.174 E9.83067
G1 X74.877 Y139.568 E9.85538
G1 X74.54 Y139.071 E9.87536
G1 X74.195 Y138.516 E9.89709
G1 X73.847 Y137.916 E9.92016
G1 X73.533 Y137.343 E9.94189
G1 X73.251 Y136.778 E9.96289
G1 X72.936 Y136.098 E9.98782
G1 X72.696 Y135.545 E10.00787
G1 X72.456 Y134.926 E10.02995
G1 X72.044 Y133.729 E10.07206
G1 X71.85 Y133.06 E10.09522
G1 X71.652 Y132.277 E10.12209
G1 X71.517 Y131.689 E10.14215
G1 X71.403 Y131.096 E10.16224
G1 X71.27 Y130.221 E10.19167
G1 X71.215 Y129.772 E10.20672
G1 X71.156 Y129.142 E10.22777
G1 X71.09 Y128.048 E10.26422
G1 X71.066 Y127.205 E10.29227
G1 X71.064 Y122.799 E10.43881
G1 X71.027 Y120.205 E10.5251
G1 X70.918 Y117.659 E10.60986
G1 X70.743 Y115.179 E10.69255
G1 X70.495 Y112.682 E10.776
G1 X70.174 Y110.174 E10.8601
G1 X69.784 Y107.691 E10.9437
G1 X69.326 Y105.226 E11.02709
G1 X68.789 Y102.735 E11.11184
G1 X68.191 Y100.298 E11.1953
G1 X67.499 Y97.74 E11.28344
G1 X67.319 Y96.855 E11.31348
G1 X67.201 Y95.815 E11.34829
G1 X67.182 Y94.842 E11.38066
G1 X67.249 Y93.87 E11.41306
G1 X67.399 Y92.916 E11.44518
G1 X67.57 Y92.195 E11.46983
G1 X67.83 Y91.253 E11.50233
G1 X68.085 Y90.378 E11.53265
G1 X68.784 Y87.856 E11.61969
G1 X69.371 Y85.472 E11.70135
G1 X69.919 Y82.94 E11.78751
G1 X70.373 Y80.517 E11.86951
G1 X70.768 Y78.017 E11.95369
G1 X71.093 Y75.506 E12.0379
G1 X71.349 Y72.96 E12.12301
G1 X71.526 Y70.497 E12.20514
G1 X71.634 Y68.001 E12.28823
G1 X71.674 Y65.447 E12.37319
G1 X71.642 Y62.993 E12.45482
G1 X71.485 Y59.533 E12.57002
G1 X71.365 Y57.607 E12.6342
G1 X71.341 Y56.786 E12.66152
G1 X71.341 Y22.743 E13.79379
G1 X71.355 Y21.725 E13.82766
G1 X71.406 Y20.692 E13.86205
G1 X71.469 Y20.008 E13.8849
G1 X71.564 Y19.226 E13.9111
G1 X71.648 Y18.651 E13.93043
G1 X71.771 Y17.979 E13.95315
G1 X71.908 Y17.35 E13.97456
M204 S2000
G0 F7500 X72.297 Y17.445
M204 S500
G1 F1500 X72.444 Y16.841 E13.99524
G1 X72.617 Y16.226 E14.01649
G1 X73.01 Y15.013 E14.0589
G1 X73.257 Y14.371 E14.08178
G1 X73.54 Y13.7 E14.106
G1 X73.788 Y13.146 E14.12618
G1 X74.071 Y12.575 E14.14738
G1 X74.411 Y11.941 E14.17131
G1 X74.718 Y11.398 E14.19206
G1 X75.042 Y10.873 E14.21257
G1 X75.599 Y10.036 E14.24601
G1 X75.788 Y9.77 E14.25687
G1 X76.161 Y9.276 E14.27746
G1 X76.608 Y8.718 E14.30123
G1 X76.996 Y8.256 E14.3213
G1 X77.42 Y7.788 E14.34231
G1 X77.926 Y7.264 E14.36653
G1 X78.318 Y6.876 E14.38488
G1 X78.8 Y6.435 E14.40661
G1 X79.406 Y5.914 E14.43319
G1 X79.844 Y5.554 E14.45204
G1 X80.332 Y5.185 E14.47239
G1 X80.88 Y4.795 E14.49476
G1 X81.423 Y4.427 E14.51658
G1 X81.944 Y4.104 E14.53697
G1 X82.589 Y3.73 E14.56177
G1 X83.098 Y3.449 E14.58111
G1 X83.659 Y3.169 E14.60196
G1 X84.358 Y2.845 E14.62758
G1 X84.868 Y2.623 E14.64608
G1 X85.456 Y2.394 E14.66707
G1 X86.601 Y1.997 E14.70738
G1 X87.249 Y1.81 E14.72981
G1 X88.465 Y1.506 E14.7715
G1 X88.898 Y1.414 E14.78622
G1 X89.469 Y1.314 E14.8055
G1 X90.544 Y1.166 E14.8416
G1 X91.169 Y1.107 E14.86248
G1 X92.239 Y1.043 E14.89813
G1 X93.062 Y1.019 E14.92551
G1 X127.074 Y1.019 E16.05676
G1 X128.079 Y1.033 E16.09019
G1 X129.084 Y1.081 E16.12365
G1 X129.736 Y1.14 E16.14543
G1 X130.521 Y1.234 E16.17172
G1 X131.203 Y1.334 E16.19465
G1 X131.763 Y1.437 E16.21358
G1 X132.553 Y1.612 E16.2405
G1 X132.952 Y1.712 E16.25418
G1 X133.555 Y1.883 E16.27503
G1 X134.438 Y2.161 E16.30582
G1 X134.894 Y2.317 E16.32184
G1 X135.472 Y2.54 E16.34245
G1 X136.126 Y2.816 E16.36606
G1 X136.617 Y3.035 E16.38394
G1 X137.212 Y3.329 E16.40602
G1 X137.917 Y3.706 E16.43261
G1 X138.415 Y3.987 E16.45162
G1 X138.938 Y4.31 E16.47207
G1 X139.54 Y4.706 E16.49604
G1 X140.057 Y5.064 E16.51695
G1 X140.559 Y5.443 E16.53787
G1 X141.189 Y5.948 E16.56473
G1 X141.564 Y6.263 E16.58102
G1 X141.991 Y6.645 E16.60007
G1 X142.412 Y7.046 E16.61941
G1 X142.998 Y7.644 E16.64726
G1 X143.411 Y8.096 E16.66762
G1 X144.07 Y8.868 E16.70138
G1 X144.637 Y9.603 E16.73226
G1 X145.055 Y10.191 E16.75625
G1 X145.398 Y10.698 E16.77661
G1 X145.717 Y11.212 E16.79673
G1 X146.394 Y12.377 E16.84155
G1 X147.725 Y14.596 E16.92761
G1 X149.076 Y16.712 E17.01111
G1 X150.51 Y18.821 E17.09593
G1 X151.99 Y20.873 E17.18008
G1 X153.536 Y22.892 E17.26466
G1 X155.103 Y24.864 E17.34844
G1 X155.633 Y25.681 E17.38083
G1 X156.072 Y26.511 E17.41206
G1 X156.422 Y27.344 E17.44211
G1 X156.499 Y27.588 E17.45062
G1 X156.538 Y27.672 E17.4537
G1 X156.68 Y28.107 E17.46892
G1 X157.038 Y29.325 E17.51114
G1 X157.291 Y30.262 E17.54342
G1 X157.471 Y31.147 E17.57346
G1 X157.581 Y32.116 E17.6059
G1 X157.602 Y33.045 E17.6368
G1 X157.578 Y33.564 E17.65408
G1 X157.518 Y34.419 E17.68259
G1 X157.373 Y36.992 E17.76831
G1 X157.303 Y39.517 E17.85232
G1 X157.304 Y42.062 E17.93697
G1 X157.339 Y43.984 E18.0009
G1 X157.299 Y44.886 E18.03093
G1 X157.17 Y45.846 E18.06315
G1 X157.031 Y46.504 E18.08552
G1 X156.917 Y46.95 E18.10083
G1 X156.628 Y47.994 E18.13686
G1 X156.427 Y48.677 E18.16054
G1 X156.405 Y48.717 E18.16206
G1 X156.279 Y49.141 E18.17677
G1 X156.019 Y49.82 E18.20095
G1 X155.346 Y51.399 E18.25804
G1 X154.405 Y53.722 E18.3414
G1 X153.523 Y56.088 E18.42539
G1 X152.704 Y58.494 E18.50992
G1 X151.96 Y60.894 E18.59349
G1 X151.279 Y63.339 E18.67791
G1 X150.674 Y65.772 E18.76129
G1 X150.126 Y68.276 E18.84655
G1 X149.659 Y70.742 E18.93003
G1 X149.258 Y73.252 E19.01457
G1 X148.933 Y75.731 E19.09772
G1 X148.669 Y78.294 E19.18342
G1 X148.485 Y80.789 E19.26663
G1 X148.37 Y83.318 E19.35083
G1 X148.326 Y85.845 E19.43489
G1 X148.353 Y88.315 E19.51705
G1 X148.5 Y91.639 E19.62772
G1 X148.529 Y92.546 E19.6579
G1 X148.536 Y93.075 E19.67549
G1 X148.534 Y126.8 E20.79719
G1 X148.512 Y128.068 E20.83937
G1 X148.47 Y128.83 E20.86476
G1 X148.414 Y129.452 E20.88553
G1 X148.315 Y130.275 E20.9131
G1 X148.224 Y130.898 E20.93404
G1 X148.153 Y131.295 E20.94745
G1 X147.943 Y132.268 E20.98056
G1 X147.804 Y132.824 E20.99962
G1 X147.648 Y133.381 E21.01886
G1 X147.411 Y134.12 E21.04467
G1 X147.245 Y134.592 E21.06131
G1 X147.023 Y135.17 E21.08191
G1 X146.744 Y135.834 E21.10586
G1 X146.475 Y136.429 E21.12758
G1 X146.21 Y136.963 E21.14741
G1 X145.864 Y137.612 E21.17187
G1 X145.574 Y138.125 E21.19147
G1 X145.248 Y138.654 E21.21214
G1 X144.845 Y139.266 E21.23651
G1 X144.49 Y139.779 E21.25726
G1 X144.124 Y140.265 E21.27749
G1 X143.664 Y140.84 E21.30199
G1 X143.243 Y141.339 E21.3237
G1 X142.845 Y141.776 E21.34336
G1 X142.373 Y142.264 E21.36594
G1 X141.915 Y142.717 E21.38737
G1 X141.459 Y143.135 E21.40794
G1 X140.977 Y143.55 E21.4291
G1 X140.457 Y143.977 E21.45147
G1 X139.95 Y144.361 E21.47263
G1 X139.339 Y144.795 E21.49755
G1 X138.841 Y145.132 E21.51755
G1 X138.315 Y145.459 E21.53815
G1 X137.724 Y145.802 E21.56088
G1 X137.164 Y146.109 E21.58212
G1 X136.61 Y146.386 E21.60272
G1 X135.939 Y146.697 E21.62732
G1 X135.385 Y146.938 E21.64742
G1 X134.811 Y147.161 E21.6679
G1 X134.129 Y147.404 E21.69198
G1 X133.613 Y147.574 E21.71005
G1 X132.983 Y147.756 E21.73186
G1 X132.175 Y147.961 E21.75958
G1 X131.614 Y148.09 E21.77873
G1 X131.005 Y148.206 E21.79935
G1 X130.212 Y148.328 E21.82604
G1 X129.767 Y148.384 E21.84095
G1 X129.121 Y148.445 E21.86253
G1 X128.015 Y148.511 E21.89939
G1 X127.221 Y148.534 E21.9258
G1 X93.2 Y148.534 E23.05735
G1 X92.202 Y148.52 E23.09054
G1 X91.201 Y148.473 E23.12387
G1 X90.547 Y148.414 E23.14572
G1 X89.748 Y148.318 E23.17248
G1 X89.071 Y148.218 E23.19524
G1 X88.506 Y148.114 E23.21435
G1 X87.734 Y147.943 E23.24065
G1 X87.305 Y147.836 E23.25536
G1 X86.69 Y147.661 E23.27662
G1 X85.9 Y147.412 E23.30417
G1 X85.408 Y147.245 E23.32145
G1 X84.822 Y147.019 E23.34234
G1 X84.165 Y146.742 E23.36606
G1 X83.596 Y146.487 E23.3868
G1 X83.037 Y146.21 E23.40755
G1 X82.388 Y145.864 E23.43201
G1 X81.863 Y145.567 E23.45207
G1 X81.339 Y145.244 E23.47254
G1 X80.72 Y144.836 E23.4972
G1 X80.22 Y144.488 E23.51746
G1 X79.728 Y144.117 E23.53796
G1 X79.159 Y143.662 E23.56219
G1 X78.635 Y143.22 E23.58499
G1 X78.209 Y142.83 E23.6042
G1 X77.51 Y142.149 E23.63666
G1 X77.291 Y141.923 E23.64712
G1 X76.873 Y141.466 E23.66772
G1 X76.427 Y140.949 E23.69043
G1 X76.009 Y140.439 E23.71237
G1 X75.633 Y139.942 E23.73309
G1 X75.208 Y139.344 E23.75749
G1 X74.88 Y138.86 E23.77694
G1 X74.541 Y138.315 E23.79829
G1 X74.198 Y137.724 E23.82102
G1 X73.891 Y137.164 E23.84226
G1 X73.614 Y136.61 E23.86286
G1 X73.303 Y135.939 E23.88746
G1 X73.069 Y135.4 E23.907
G1 X72.834 Y134.796 E23.92856
G1 X72.428 Y133.618 E23.97
G1 X72.238 Y132.962 E23.99271
G1 X72.042 Y132.188 E24.01927
G1 X71.91 Y131.613 E24.03889
G1 X71.796 Y131.02 E24.05898
G1 X71.667 Y130.172 E24.0875
G1 X71.613 Y129.735 E24.10215
G1 X71.555 Y129.118 E24.12276
G1 X71.49 Y128.036 E24.15881
G1 X71.466 Y127.205 E24.18646
G1 X71.464 Y122.799 E24.33301
G1 X71.427 Y120.199 E24.41949
G1 X71.318 Y117.642 E24.50462
G1 X71.142 Y115.151 E24.58768
G1 X70.892 Y112.631 E24.6719
G1 X70.571 Y110.123 E24.756
G1 X70.179 Y107.629 E24.83997
G1 X69.719 Y105.153 E24.92373
G1 X69.18 Y102.651 E25.00886
G1 X68.579 Y100.203 E25.09269
G1 X67.891 Y97.66 E25.18032
G1 X67.711 Y96.775 E25.21035
G1 X67.601 Y95.806 E25.24279
G1 X67.581 Y94.869 E25.27396
G1 X67.644 Y93.932 E25.3052
G1 X67.788 Y93.008 E25.3363
G1 X67.956 Y92.301 E25.36047
G1 X68.214 Y91.365 E25.39276
G1 X68.469 Y90.49 E25.42308
G1 X69.169 Y87.963 E25.51029
G1 X69.762 Y85.557 E25.59271
G1 X70.31 Y83.025 E25.67887
