;FLAVOR:Marlin
;TIME:2193
;Filament used: 1.11936m
;Layer height: 0.2
;MINX:16.73
;MINY:25.657
;MINZ:0.2
;MAXX:56.796
;MAXY:119.204
;MAXZ:18.8
;TARGET_MACHINE.NAME:Creality Ender-3 S1 Pro
;Generated with Cura_SteamEngine 5.10.2
; Ender 3 S1 Pro Start G-code
; M413 S0 ; Disable power loss recovery
G92 E0 ; Reset Extruder

; Prep surfaces before auto home for better accuracy
M140 S60
M104 S202.0

G28 ; Home all axes
G1 Z10.0 F3000 ; Move Z Axis up little to prevent scratching of Heat Bed
G1 X0 Y0

M190 S60
M109 S202.0

G1 X0.1 Y20 Z0.3 F5000.0 ; Move to start position
G1 X0.1 Y200.0 Z0.3 F1500.0 E15 ; Draw the first line
G1 X0.4 Y200.0 Z0.3 F5000.0 ; Move to side a little
G1 X0.4 Y20 Z0.3 F1500.0 E30 ; Draw the second line
G92 E0 ; Reset Extruder
G1 Z2.0 F3000 ; Move Z Axis up little to prevent scratching of Heat Bed
G1 X5 Y20 Z0.3 F5000.0 ; Move over to prevent blob squish

M82 ;absolute extrusion mode
G92 E0
G92 E0
G1 F2400 E-0.8
;LAYER_COUNT:94
;LAYER:0
M107
M204 S2000
G0 F7500 X23.564 Y29.803 Z0.2
M204 S500
;TYPE:SKIRT
G1 F2400 E0
G1 F1500 X23.929 Y29.532 E0.01512
G1 X24.464 Y29.161 E0.03677
G1 X25.481 Y28.509 E0.07695
G1 X26.086 Y28.17 E0.10002
G1 X27.085 Y27.653 E0.13743
G1 X27.87 Y27.301 E0.16605
G1 X29.093 Y26.819 E0.20977
G1 X29.724 Y26.613 E0.23185
G1 X30.856 Y26.286 E0.27104
G1 X31.587 Y26.119 E0.29598
G1 X32.842 Y25.886 E0.33843
G1 X33.495 Y25.805 E0.36032
G1 X34.719 Y25.694 E0.40119
G1 X35.374 Y25.663 E0.423
G1 X35.921 Y25.657 E0.4412
G1 X36.585 Y25.671 E0.46329
G1 X37.031 Y25.693 E0.47814
G1 X37.831 Y25.76 E0.50484
G1 X38.5 Y25.841 E0.52725
G1 X39.669 Y26.026 E0.56662
G1 X40.42 Y26.189 E0.59218
G1 X41.677 Y26.517 E0.63539
G1 X42.316 Y26.724 E0.65773
G1 X43.443 Y27.137 E0.69765
G1 X44.078 Y27.412 E0.72066
G1 X44.893 Y27.795 E0.75062
G1 X45.346 Y28.023 E0.76748
G1 X45.871 Y28.316 E0.78748
G1 X46.929 Y28.956 E0.82861
G1 X47.479 Y29.333 E0.85079
G1 X48.17 Y29.839 E0.87927
G1 X48.616 Y30.184 E0.89802
G1 X49.037 Y30.542 E0.91641
G1 X49.912 Y31.33 E0.95557
G1 X50.455 Y31.878 E0.98123
G1 X51.015 Y32.485 E1.0087
G1 X51.369 Y32.887 E1.02651
G1 X51.766 Y33.371 E1.04733
G1 X52.094 Y33.801 E1.06532
G1 X52.727 Y34.688 E1.10157
G1 X53.041 Y35.172 E1.12075
G1 X53.477 Y35.903 E1.14906
G1 X53.791 Y36.489 E1.17118
G1 X54.198 Y37.407 E1.20457
G1 X54.501 Y38.295 E1.23578
G1 X54.741 Y39.275 E1.26934
G1 X54.887 Y40.232 E1.30154
G1 X54.943 Y41.009 E1.32745
G1 X54.959 Y41.921 E1.35779
G1 X54.963 Y85.27 E2.79958
G1 X55 Y87.843 E2.88517
G1 X55.108 Y90.399 E2.97026
G1 X55.284 Y92.876 E3.05285
G1 X55.532 Y95.373 E3.13631
G1 X55.855 Y97.891 E3.22074
G1 X56.249 Y100.4 E3.30522
G1 X56.615 Y102.431 E3.37386
G1 X56.747 Y103.395 E3.40622
G1 X56.796 Y104.369 E3.43865
G1 X56.756 Y105.342 E3.47104
G1 X56.633 Y106.299 E3.50313
G1 X56.487 Y107.002 E3.52702
G1 X56.271 Y107.834 E3.55561
G1 X55.82 Y109.404 E3.60994
G1 X55.733 Y109.657 E3.61883
G1 X55.705 Y109.766 E3.62258
G1 X55.486 Y110.358 E3.64357
G1 X55.348 Y110.687 E3.65544
G1 X54.922 Y111.555 E3.6876
G1 X54.459 Y112.332 E3.71768
G1 X53.805 Y113.222 E3.75441
G1 X53.255 Y113.853 E3.78225
G1 X52.535 Y114.615 E3.81712
G1 X51.662 Y115.492 E3.85828
G1 X50.941 Y116.147 E3.89068
G1 X50.194 Y116.714 E3.92187
G1 X49.34 Y117.251 E3.95542
G1 X48.457 Y117.7 E3.98837
G1 X47.199 Y118.18 E4.03316
G1 X46.185 Y118.492 E4.06844
G1 X44.632 Y118.916 E4.12198
G1 X43.65 Y119.101 E4.15522
G1 X42.681 Y119.195 E4.1876
G1 X41.706 Y119.204 E4.22003
G1 X40.737 Y119.126 E4.25236
G1 X39.846 Y118.978 E4.28241
G1 X39.111 Y118.797 E4.30758
G1 X38.13 Y118.519 E4.34149
G1 X36.694 Y118.065 E4.39159
G1 X35.747 Y117.678 E4.42561
G1 X34.519 Y117.015 E4.47203
G1 X33.013 Y116.064 E4.53127
G1 X30.874 Y114.767 E4.61447
G1 X28.71 Y113.539 E4.69723
G1 X26.092 Y112.155 E4.79572
G1 X24.905 Y111.545 E4.84011
G1 X23.512 Y110.776 E4.89303
G1 X22.697 Y110.244 E4.9254
G1 X21.959 Y109.664 E4.95662
G1 X21.105 Y108.862 E4.99559
G1 X20.687 Y108.428 E5.01563
G1 X20.099 Y107.742 E5.04568
G1 X19.564 Y107.002 E5.07605
G1 X19.063 Y106.167 E5.10844
G1 X18.638 Y105.292 E5.14079
G1 X18.303 Y104.418 E5.17192
G1 X18.085 Y103.716 E5.19637
G1 X17.991 Y103.375 E5.20814
G1 X17.977 Y103.288 E5.21107
G1 X17.885 Y102.956 E5.22253
G1 X17.705 Y101.997 E5.25498
G1 X17.609 Y101.021 E5.2876
G1 X17.573 Y100.2 E5.31493
G1 X17.423 Y97.682 E5.39883
G1 X17.204 Y95.179 E5.4824
G1 X16.836 Y92.085 E5.58603
G1 X16.747 Y90.875 E5.62638
G1 X16.73 Y89.824 E5.66134
G1 X16.734 Y41.945 E7.2538
G1 X16.746 Y41.212 E7.27819
G1 X16.805 Y40.249 E7.31028
G1 X16.901 Y39.555 E7.33358
G1 X17.107 Y38.604 E7.36594
G1 X17.4 Y37.661 E7.39879
G1 X17.92 Y36.451 E7.44259
G1 X18.223 Y35.89 E7.4638
G1 X18.497 Y35.422 E7.48183
G1 X18.765 Y34.991 E7.49871
G1 X19.084 Y34.507 E7.51799
G1 X19.614 Y33.771 E7.54816
G1 X20.01 Y33.263 E7.56958
G1 X20.627 Y32.538 E7.60125
G1 X20.99 Y32.134 E7.61931
G1 X21.437 Y31.676 E7.6406
G1 X22.032 Y31.099 E7.66816
G1 X22.514 Y30.657 E7.68992
G1 X22.957 Y30.281 E7.70924
G1 X23.564 Y29.803 E7.73494
M204 S2000
G0 F7500 X23.803 Y30.124
M204 S500
G1 F1500 X24.157 Y29.861 E7.74961
G1 X24.68 Y29.498 E7.77078
G1 X25.697 Y28.846 E7.81096
G1 X26.27 Y28.525 E7.83281
G1 X27.249 Y28.018 E7.86948
G1 X28.017 Y27.673 E7.89748
G1 X29.217 Y27.199 E7.94039
G1 X29.835 Y26.997 E7.96202
G1 X30.945 Y26.676 E8.00045
G1 X31.66 Y26.512 E8.02485
G1 X32.892 Y26.283 E8.06652
G1 X33.531 Y26.203 E8.08794
G1 X34.738 Y26.094 E8.12825
G1 X35.378 Y26.063 E8.14956
G1 X35.912 Y26.057 E8.16733
G1 X36.566 Y26.071 E8.18908
G1 X36.998 Y26.092 E8.20347
G1 X37.783 Y26.157 E8.22967
G1 X38.438 Y26.236 E8.25161
G1 X39.584 Y26.417 E8.2902
G1 X40.319 Y26.576 E8.31521
G1 X41.554 Y26.898 E8.35766
G1 X42.179 Y27.1 E8.37951
G1 X43.284 Y27.504 E8.41864
G1 X43.908 Y27.774 E8.44125
G1 X44.714 Y28.153 E8.47087
G1 X45.151 Y28.372 E8.48713
G1 X45.664 Y28.658 E8.50667
G1 X46.703 Y29.286 E8.54705
G1 X47.243 Y29.656 E8.56882
G1 X47.925 Y30.155 E8.59693
G1 X48.357 Y30.489 E8.61509
G1 X48.769 Y30.839 E8.63307
G1 X49.644 Y31.627 E8.67223
G1 X50.161 Y32.149 E8.69667
G1 X50.715 Y32.749 E8.72383
G1 X51.06 Y33.141 E8.7412
G1 X51.448 Y33.614 E8.76155
G1 X51.768 Y34.033 E8.77908
G1 X52.391 Y34.906 E8.81475
G1 X52.705 Y35.39 E8.83394
G1 X53.124 Y36.092 E8.86113
G1 X53.438 Y36.678 E8.88325
G1 X53.819 Y37.536 E8.91447
G1 X54.122 Y38.424 E8.94568
G1 X54.346 Y39.336 E8.97691
G1 X54.488 Y40.261 E9.00804
G1 X54.543 Y41.016 E9.03322
G1 X54.559 Y41.921 E9.06332
G1 X54.563 Y85.27 E10.50511
G1 X54.6 Y87.86 E10.59127
G1 X54.708 Y90.416 E10.67636
G1 X54.886 Y92.916 E10.75972
G1 X55.135 Y95.424 E10.84354
G1 X55.458 Y97.942 E10.92798
G1 X55.855 Y100.471 E11.01312
G1 X56.219 Y102.486 E11.08123
G1 X56.348 Y103.415 E11.11242
G1 X56.396 Y104.353 E11.14366
G1 X56.359 Y105.291 E11.17488
G1 X56.241 Y106.218 E11.20596
G1 X56.095 Y106.921 E11.22985
G1 X55.887 Y107.724 E11.25743
G1 X55.442 Y109.273 E11.31104
G1 X55.347 Y109.548 E11.32072
G1 X55.33 Y109.627 E11.3234
G1 X55.117 Y110.204 E11.34386
G1 X54.989 Y110.511 E11.35492
G1 X54.578 Y111.35 E11.386
G1 X54.115 Y112.127 E11.41608
G1 X53.503 Y112.959 E11.45043
G1 X52.964 Y113.578 E11.47773
G1 X52.251 Y114.333 E11.51227
G1 X51.393 Y115.196 E11.55275
G1 X50.699 Y115.828 E11.58397
G1 X49.952 Y116.395 E11.61516
G1 X49.158 Y116.895 E11.64637
G1 X48.314 Y117.326 E11.67789
G1 X47.056 Y117.806 E11.72267
G1 X46.079 Y118.106 E11.75666
G1 X44.557 Y118.523 E11.80915
G1 X43.611 Y118.703 E11.84118
G1 X42.677 Y118.795 E11.87239
G1 X41.738 Y118.805 E11.90363
G1 X40.803 Y118.731 E11.93482
G1 X39.912 Y118.583 E11.96486
G1 X39.22 Y118.412 E11.98857
G1 X38.25 Y118.137 E12.02211
G1 X36.844 Y117.694 E12.07114
G1 X35.937 Y117.326 E12.10369
G1 X34.733 Y116.677 E12.14918
G1 X33.227 Y115.726 E12.20842
G1 X31.071 Y114.419 E12.29228
G1 X28.897 Y113.185 E12.37542
G1 X26.279 Y111.801 E12.47392
G1 X25.098 Y111.195 E12.51807
G1 X23.73 Y110.441 E12.57002
G1 X22.944 Y109.929 E12.60122
G1 X22.233 Y109.372 E12.63126
G1 X21.393 Y108.584 E12.66957
G1 X20.991 Y108.168 E12.68881
G1 X20.403 Y107.482 E12.71886
G1 X19.907 Y106.796 E12.74702
G1 X19.423 Y105.992 E12.77823
G1 X19.012 Y105.149 E12.80942
G1 X18.677 Y104.275 E12.84055
G1 X18.471 Y103.61 E12.86371
G1 X18.377 Y103.269 E12.87547
G1 X18.375 Y103.228 E12.87684
G1 X18.278 Y102.881 E12.88882
G1 X18.103 Y101.958 E12.92007
G1 X18.009 Y101.003 E12.95199
G1 X17.972 Y100.182 E12.97932
G1 X17.822 Y97.658 E13.06342
G1 X17.602 Y95.144 E13.14735
G1 X17.235 Y92.055 E13.25082
G1 X17.147 Y90.868 E13.2904
G1 X17.13 Y89.824 E13.32513
G1 X17.134 Y41.951 E14.91739
G1 X17.145 Y41.236 E14.94118
G1 X17.201 Y40.303 E14.97227
G1 X17.292 Y39.639 E14.99456
G1 X17.489 Y38.722 E15.02575
G1 X17.768 Y37.818 E15.05722
G1 X18.272 Y36.641 E15.0998
G1 X18.568 Y36.092 E15.12055
G1 X18.837 Y35.633 E15.13824
G1 X19.099 Y35.211 E15.15476
G1 X19.408 Y34.741 E15.17347
G1 X19.93 Y34.017 E15.20316
G1 X20.315 Y33.522 E15.22402
G1 X20.925 Y32.805 E15.25533
G1 X21.276 Y32.413 E15.27283
G1 X21.715 Y31.963 E15.29374
G1 X22.302 Y31.394 E15.32093
G1 X22.773 Y30.962 E15.34218
G1 X23.204 Y30.595 E15.36101
G1 X23.803 Y30.124 E15.38636
M204 S2000
G0 F7500 X24.041 Y30.445
M204 S500
G1 F1500 X24.385 Y30.19 E15.4006
G1 X24.896 Y29.835 E15.42129
G1 X25.913 Y29.183 E15.46147
G1 X26.454 Y28.88 E15.4821
G1 X27.413 Y28.383 E15.51802
G1 X28.164 Y28.045 E15.54541
G1 X29.342 Y27.579 E15.58755
G1 X29.946 Y27.381 E15.60869
G1 X31.035 Y27.066 E15.6464
G1 X31.733 Y26.905 E15.67022
G1 X32.942 Y26.68 E15.71112
G1 X33.567 Y26.601 E15.73208
G1 X34.758 Y26.494 E15.77185
G1 X35.383 Y26.463 E15.79266
G1 X35.903 Y26.457 E15.80996
G1 X36.547 Y26.471 E15.83138
G1 X36.965 Y26.491 E15.8453
G1 X37.735 Y26.554 E15.871
G1 X38.376 Y26.631 E15.89247
G1 X39.5 Y26.808 E15.93031
G1 X40.218 Y26.963 E15.95475
G1 X41.431 Y27.279 E15.99644
G1 X42.042 Y27.476 E16.01779
G1 X43.125 Y27.871 E16.05613
G1 X43.738 Y28.136 E16.07834
G1 X44.535 Y28.511 E16.10764
G1 X44.956 Y28.721 E16.12329
G1 X45.457 Y29 E16.14236
G1 X46.477 Y29.616 E16.18199
G1 X47.007 Y29.979 E16.20336
G1 X47.681 Y30.472 E16.23113
G1 X48.098 Y30.794 E16.24865
G1 X48.501 Y31.136 E16.26623
G1 X49.36 Y31.909 E16.30467
G1 X49.867 Y32.42 E16.32861
G1 X50.415 Y33.013 E16.35547
G1 X50.751 Y33.395 E16.37239
G1 X51.13 Y33.857 E16.39226
G1 X51.442 Y34.265 E16.40935
G1 X52.055 Y35.124 E16.44445
G1 X52.369 Y35.608 E16.46363
G1 X52.772 Y36.281 E16.48973
G1 X53.073 Y36.841 E16.51087
G1 X53.441 Y37.666 E16.54092
G1 X53.734 Y38.52 E16.57095
G1 X53.951 Y39.397 E16.60099
G1 X54.089 Y40.29 E16.63105
G1 X54.143 Y41.023 E16.65549
G1 X54.159 Y41.921 E16.68537
G1 X54.163 Y85.27 E18.12716
G1 X54.2 Y87.877 E18.21388
G1 X54.308 Y90.433 E18.29897
G1 X54.488 Y92.956 E18.3831
G1 X54.738 Y95.475 E18.46729
G1 X55.061 Y97.993 E18.55172
G1 X55.461 Y100.542 E18.63754
G1 X55.823 Y102.542 E18.70514
G1 X55.949 Y103.436 E18.73517
G1 X55.996 Y104.338 E18.76521
G1 X55.962 Y105.241 E18.79527
G1 X55.849 Y106.137 E18.82531
G1 X55.703 Y106.84 E18.84919
G1 X55.503 Y107.614 E18.87578
G1 X55.064 Y109.142 E18.92865
G1 X54.945 Y109.486 E18.94076
G1 X54.955 Y109.489 E18.94111
G1 X54.748 Y110.051 E18.96103
G1 X54.63 Y110.335 E18.97126
G1 X54.234 Y111.146 E19.00127
G1 X53.792 Y111.89 E19.03006
G1 X53.201 Y112.696 E19.0633
G1 X52.673 Y113.303 E19.09006
G1 X51.967 Y114.051 E19.12427
G1 X51.123 Y114.901 E19.16411
G1 X50.457 Y115.51 E19.19412
G1 X49.738 Y116.057 E19.22417
G1 X48.975 Y116.539 E19.25419
G1 X48.171 Y116.952 E19.28425
G1 X46.913 Y117.432 E19.32903
G1 X45.972 Y117.721 E19.36177
G1 X44.458 Y118.135 E19.41398
G1 X43.571 Y118.305 E19.44402
G1 X42.672 Y118.395 E19.47407
G1 X41.769 Y118.406 E19.5041
G1 X40.869 Y118.336 E19.53413
G1 X39.978 Y118.188 E19.56417
G1 X39.329 Y118.027 E19.58641
G1 X38.37 Y117.755 E19.61956
G1 X36.964 Y117.312 E19.66859
G1 X36.127 Y116.974 E19.69862
G1 X34.947 Y116.339 E19.74319
G1 X33.441 Y115.388 E19.80243
G1 X31.268 Y114.071 E19.88694
G1 X29.084 Y112.831 E19.97047
G1 X26.466 Y111.447 E20.06896
G1 X25.291 Y110.845 E20.11288
G1 X23.948 Y110.106 E20.16386
G1 X23.191 Y109.614 E20.19389
G1 X22.48 Y109.057 E20.22393
G1 X21.669 Y108.294 E20.26096
G1 X21.295 Y107.908 E20.27884
G1 X20.707 Y107.222 E20.30889
G1 X20.249 Y106.589 E20.33488
G1 X19.782 Y105.816 E20.36492
G1 X19.385 Y105.005 E20.39495
G1 X19.059 Y104.157 E20.42517
G1 X18.857 Y103.504 E20.4479
G1 X18.763 Y103.163 E20.45967
G1 X18.772 Y103.161 E20.45997
G1 X18.671 Y102.806 E20.47225
G1 X18.501 Y101.919 E20.50229
G1 X18.409 Y100.985 E20.5335
G1 X18.371 Y100.164 E20.56084
G1 X18.221 Y97.634 E20.64513
G1 X18 Y95.109 E20.72944
G1 X17.634 Y92.025 E20.83273
G1 X17.547 Y90.861 E20.87155
G1 X17.53 Y89.824 E20.90605
G1 X17.534 Y41.957 E22.49811
G1 X17.544 Y41.259 E22.52133
G1 X17.597 Y40.357 E22.55138
G1 X17.683 Y39.722 E22.57269
G1 X17.871 Y38.839 E22.60272
G1 X18.136 Y37.975 E22.63278
G1 X18.624 Y36.831 E22.67415
G1 X18.913 Y36.294 E22.69443
G1 X19.177 Y35.844 E22.71178
G1 X19.433 Y35.431 E22.72794
G1 X19.733 Y34.975 E22.7461
G1 X20.246 Y34.262 E22.77531
G1 X20.619 Y33.781 E22.79556
G1 X21.223 Y33.072 E22.82654
G1 X21.563 Y32.692 E22.8435
G1 X21.993 Y32.25 E22.86401
G1 X22.573 Y31.688 E22.89087
G1 X23.032 Y31.266 E22.9116
G1 X23.451 Y30.909 E22.92991
G1 X24.041 Y30.445 E22.95488
M204 S2000
G1 F2400 E22.15488
G0 F7500 X27.515 Y90.722
G0 X28.944 Y98.805
G0 X29.269 Y99.381
M204 S500
G1 F2400 E22.95488
G1 F1500 X29.595 Y99.289 E22.96614
G1 X29.928 Y99.382 E22.97764
G1 X30.118 Y99.585 E22.98689
G1 X30.227 Y99.645 E22.99103
G1 X30.315 Y99.641 E22.99396
G1 X30.967 Y99.468 E23.0164
G1 X31.062 Y99.412 E23.02006
G1 X31.24 Y99.222 E23.02872
G1 X31.43 Y99.167 E23.0353
G1 X31.619 Y99.221 E23.04184
G1 X31.77 Y99.379 E23.04911
G1 X31.838 Y99.421 E23.05177
G1 X31.991 Y99.604 E23.0597
G1 X32.055 Y99.849 E23.06812
G1 X32.052 Y99.907 E23.07005
G1 X32.107 Y100.054 E23.07527
G1 X32.151 Y100.1 E23.07739
G1 X32.32 Y100.681 E23.09752
G1 X32.149 Y101.294 E23.11868
G1 X31.708 Y101.735 E23.13943
G1 X31.012 Y101.931 E23.16348
G1 X30.34 Y101.753 E23.1866
G1 X29.869 Y101.284 E23.20871
G1 X29.758 Y101.228 E23.21284
G1 X29.673 Y101.234 E23.21568
G1 X29.596 Y101.256 E23.21834
G1 X29.217 Y101.144 E23.23148
G1 X28.905 Y100.832 E23.24616
G1 X28.794 Y100.453 E23.25929
G1 X28.923 Y100.017 E23.27442
G1 X28.923 Y99.991 E23.27528
G1 X29.024 Y99.638 E23.28749
G1 X29.269 Y99.381 E23.2993
M204 S2000
G0 F7500 X29.484 Y99.736
M204 S500
G1 F1500 X29.596 Y99.704 E23.30318
G1 X29.713 Y99.737 E23.30722
G1 X29.826 Y99.858 E23.31273
G1 X30.001 Y99.987 E23.31996
G1 X30.211 Y100.046 E23.32721
G1 X30.418 Y100.028 E23.33412
G1 X31.07 Y99.855 E23.35656
G1 X31.267 Y99.762 E23.36381
G1 X31.354 Y99.685 E23.36767
G1 X31.431 Y99.603 E23.37141
G1 X31.481 Y99.655 E23.37381
G1 X31.547 Y99.696 E23.37639
G1 X31.626 Y99.791 E23.3805
G1 X31.654 Y99.898 E23.38418
G1 X31.683 Y100.105 E23.39113
G1 X31.785 Y100.276 E23.39776
G1 X31.904 Y100.684 E23.41189
G1 X31.792 Y101.085 E23.42574
G1 X31.499 Y101.378 E23.43952
G1 X31.009 Y101.516 E23.45645
G1 X30.545 Y101.393 E23.47242
G1 X30.151 Y101.001 E23.49091
G1 X29.971 Y100.878 E23.49816
G1 X29.759 Y100.827 E23.50541
G1 X29.611 Y100.844 E23.51036
G1 X29.429 Y100.79 E23.51668
G1 X29.26 Y100.621 E23.52463
G1 X29.211 Y100.452 E23.53048
G1 X29.306 Y100.131 E23.54161
G1 X29.31 Y100.093 E23.54288
G1 X29.382 Y99.843 E23.55154
G1 X29.484 Y99.736 E23.55645
M204 S2000
G0 F7500 X29.687 Y100.255
M204 S500
G1 F1500 X29.753 Y100.308 E23.55927
G1 X30.014 Y100.416 E23.56866
G1 X30.294 Y100.448 E23.57804
G1 X30.52 Y100.415 E23.58563
G1 X31.172 Y100.242 E23.60807
G1 X31.295 Y100.189 E23.61252
G1 X31.385 Y100.414 E23.62058
G1 X31.425 Y100.467 E23.62279
G1 X31.488 Y100.686 E23.63037
G1 X31.436 Y100.875 E23.63689
G1 X31.29 Y101.021 E23.64376
G1 X31.007 Y101.101 E23.65354
G1 X30.752 Y101.034 E23.66231
G1 X30.434 Y100.717 E23.67724
G1 X30.208 Y100.549 E23.68661
G1 X29.944 Y100.45 E23.69599
G1 X29.662 Y100.428 E23.7054
G1 X29.637 Y100.432 E23.70624
G1 X29.687 Y100.255 E23.71236
M204 S2000
G1 F2400 E22.91236
G0 F7500 X39.305 Y100.449
M204 S500
G1 F2400 E23.71236
G1 F1500 X39.414 Y100.071 E23.72544
G1 X39.624 Y99.85 E23.73558
G1 X39.675 Y99.753 E23.73923
G1 X39.713 Y99.574 E23.74531
G1 X39.844 Y99.422 E23.75199
